layouts/icon-pack/spell_elementalfury.svg

<?xml version="1.0" encoding="UTF-8"?>
<svg width="1200pt" height="1200pt" version="1.1" viewBox="0 0 1200 1200" xmlns="http://www.w3.org/2000/svg">
 <g fill="#fff">
  <path d="m404.48 1110.2 27.141 17.156 27.117 17.227c7.0234 4.457 15.531 5.9453 23.648 4.1289 8.1211-1.8164 15.184-6.7812 19.641-13.809l129.21-203.6 81.117 51.562c5.7148 3.6641 12.656 4.8945 19.281 3.4219 6.6289-1.4727 12.395-5.5312 16.016-11.273l12.609-19.875c3.625-5.7031 4.8281-12.617 3.3516-19.211-1.4766-6.5938-5.5156-12.332-11.227-15.945l-134.84-85.594-134.74-85.453c-5.7031-3.625-12.613-4.8359-19.207-3.3633s-12.332 5.5078-15.949 11.215l-12.609 19.875c-3.625 5.7031-4.8359 12.613-3.3633 19.207s5.5078 12.332 11.215 15.949l81.117 51.562-129.21 203.6c-4.4414 7.0156-5.918 15.508-4.1055 23.613 1.8164 8.1016 6.7734 15.156 13.785 19.605z"/>
  <path d="m1123.8 71.062c-1.2305-6.8828-5.293-12.934-11.195-16.676-5.9062-3.7422-13.109-4.8359-19.859-3.0117-105.47 28.359-230.67 77.062-285.26 99.047-17.895 7.2148-32.164 21.281-39.633 39.07-68.953 164.06-160.43 433.59-188.48 517.31-2.4492 7.3086-2.3828 15.23 0.19922 22.492 2.5781 7.2656 7.5156 13.457 14.027 17.586l35.742 22.688 325.34-512.62c4.7617-7.4805 13.148-11.855 22.012-11.473 8.8594 0.37891 16.84 5.4609 20.941 13.324 4.0977 7.8633 3.6914 17.316-1.0703 24.797l-325.34 512.55 35.742 22.688c6.5039 4.1328 14.207 5.9648 21.875 5.207 7.6719-0.76172 14.863-4.0742 20.43-9.4023 63.82-60.938 268.76-258.56 387.84-390.77 12.93-14.328 19.59-33.23 18.492-52.5-3.3516-58.758-12.562-192.73-31.805-300.3z"/>
  <path d="m70.805 979.69h135.68c10.809 0.007812 21.398-3.0234 30.566-8.7383 9.1719-5.7188 16.551-13.898 21.301-23.605l65.086-132.59c3.4375-7.0195 3.0156-15.316-1.125-21.945-4.1367-6.6328-11.402-10.66-19.219-10.656h-232.29c-7.0195 0-13.754 2.7812-18.727 7.7383-4.9727 4.9531-7.7812 11.68-7.8047 18.699v144.61c0.011718 7.0273 2.8125 13.766 7.7891 18.73 4.9727 4.9648 11.715 7.7539 18.742 7.7539z"/>
  <path d="m70.805 660.35h292.17c10.793 0.007813 21.371-3.0078 30.535-8.7031 9.168-5.6953 16.559-13.844 21.332-23.523l64.969-132.63c3.5-7.043 3.0977-15.402-1.0703-22.074-4.168-6.6719-11.5-10.703-19.367-10.645h-388.57c-7.0352 0-13.785 2.7969-18.762 7.7695-4.9727 4.9766-7.7695 11.727-7.7695 18.762v144.52c0 7.0352 2.7969 13.785 7.7695 18.762 4.9766 4.9727 11.727 7.7695 18.762 7.7695z"/>
  <path d="m70.805 340.97h448.64c10.805 0 21.395-3.0352 30.562-8.75 9.168-5.7188 16.547-13.891 21.305-23.594l64.969-132.63c3.4492-7.0156 3.0312-15.316-1.1016-21.953-4.1328-6.6367-11.398-10.672-19.219-10.672h-545.16c-7.0352 0-13.785 2.7969-18.762 7.7695-4.9727 4.9766-7.7695 11.727-7.7695 18.762v144.54c0 7.0352 2.7969 13.785 7.7695 18.762 4.9766 4.9727 11.727 7.7695 18.762 7.7695z"/>
 </g>
</svg>

<?xml version="1.0" encoding="UTF-8" standalone="no"?>
<!DOCTYPE svg PUBLIC "-//W3C//DTD SVG 1.1//EN" "http://www.w3.org/Graphics/SVG/1.1/DTD/svg11.dtd">
<svg width="100%" height="100%" viewBox="0 0 512 507" version="1.1" xmlns="http://www.w3.org/2000/svg" xmlns:xlink="http://www.w3.org/1999/xlink" xml:space="preserve" xmlns:serif="http://www.serif.com/" style="fill-rule:evenodd;clip-rule:evenodd;stroke-linejoin:round;stroke-miterlimit:2;">
    <g transform="matrix(1,0,0,1,-44.2689,-50.5106)">
        <g transform="matrix(0.460659,0,0,0.460659,23.876,27.2424)">
            <path d="M404.48,1110.2L431.621,1127.36L458.738,1144.58C465.761,1149.04 474.269,1150.53 482.386,1148.71C490.507,1146.9 497.57,1141.93 502.027,1134.9L631.237,931.303L712.354,982.865C718.069,986.529 725.01,987.759 731.635,986.287C738.264,984.814 744.03,980.756 747.651,975.014L760.26,955.139C763.885,949.436 765.088,942.522 763.612,935.928C762.135,929.334 758.096,923.596 752.385,919.983L617.545,834.389L482.805,748.936C477.101,745.311 470.192,744.1 463.598,745.573C457.004,747.045 451.266,751.08 447.649,756.788L435.04,776.663C431.415,782.366 430.204,789.276 431.676,795.87C433.149,802.464 437.184,808.202 442.891,811.819L524.008,863.381L394.798,1066.98C390.357,1074 388.88,1082.49 390.693,1090.59C392.509,1098.69 397.466,1105.75 404.478,1110.2L404.48,1110.2Z" style="fill:white;fill-rule:nonzero;"/>
            <path d="M1123.8,71.062C1122.57,64.179 1118.51,58.128 1112.61,54.386C1106.7,50.644 1099.5,49.55 1092.75,51.374C987.276,79.733 862.076,128.436 807.486,150.421C789.591,157.636 775.322,171.702 767.853,189.491C698.9,353.551 607.423,623.081 579.373,706.801C576.924,714.11 576.99,722.031 579.572,729.293C582.15,736.559 587.088,742.75 593.599,746.879L629.341,769.567L954.681,256.947C959.443,249.467 967.829,245.092 976.693,245.474C985.553,245.853 993.533,250.935 997.634,258.798C1001.73,266.662 1001.33,276.114 996.564,283.595L671.224,796.145L706.966,818.833C713.47,822.966 721.173,824.798 728.841,824.04C736.513,823.279 743.704,819.966 749.271,814.638C813.091,753.7 1018.03,556.078 1137.11,423.868C1150.04,409.54 1156.7,390.638 1155.6,371.368C1152.25,312.61 1143.04,178.638 1123.8,71.068L1123.8,71.062Z" style="fill:white;fill-rule:nonzero;"/>
            <path d="M70.805,979.69L206.485,979.69C217.294,979.698 227.883,976.667 237.051,970.952C246.223,965.233 253.602,957.054 258.352,947.347L323.438,814.757C326.876,807.737 326.454,799.441 322.313,792.812C318.176,786.179 310.911,782.152 303.094,782.156L70.804,782.156C63.785,782.156 57.05,784.937 52.077,789.894C47.104,794.847 44.296,801.574 44.272,808.593L44.272,953.203C44.284,960.23 47.085,966.969 52.061,971.933C57.034,976.898 63.776,979.687 70.803,979.687L70.805,979.69Z" style="fill:white;fill-rule:nonzero;"/>
            <path d="M70.805,660.35L362.975,660.35C373.768,660.358 384.346,657.342 393.51,651.647C402.678,645.952 410.069,637.803 414.842,628.124L479.811,495.494C483.311,488.451 482.909,480.092 478.741,473.42C474.573,466.748 467.241,462.717 459.374,462.775L70.804,462.775C63.769,462.775 57.019,465.572 52.042,470.544C47.069,475.521 44.272,482.271 44.272,489.306L44.272,633.826C44.272,640.862 47.069,647.611 52.042,652.588C57.018,657.561 63.769,660.358 70.804,660.358L70.805,660.35Z" style="fill:white;fill-rule:nonzero;"/>
            <path d="M70.805,340.97L519.445,340.97C530.25,340.97 540.84,337.935 550.007,332.22C559.175,326.501 566.554,318.329 571.312,308.626L636.281,175.996C639.73,168.98 639.312,160.68 635.179,154.043C631.047,147.406 623.781,143.371 615.96,143.371L70.8,143.371C63.765,143.371 57.015,146.168 52.038,151.141C47.066,156.117 44.269,162.868 44.269,169.903L44.269,314.443C44.269,321.478 47.066,328.228 52.038,333.205C57.015,338.177 63.765,340.974 70.8,340.974L70.805,340.97Z" style="fill:white;fill-rule:nonzero;"/>
        </g>
    </g>
</svg>
